src/lib/packages/icons/src/assets/line/lock-viewfinder.svg

<svg width="24" height="24" viewBox="0 0 24 24" fill="none" xmlns="http://www.w3.org/2000/svg">
<path d="M17.417 16V12C17.417 10.523 16.694 9.5861 15.417 9.3291V8.66602C15.417 6.78202 13.884 5.24902 12 5.24902C10.116 5.24902 8.58301 6.78202 8.58301 8.66602V9.3291C7.30601 9.5861 6.58301 10.523 6.58301 12V16C6.58301 17.748 7.58501 18.75 9.33301 18.75H14.667C16.415 18.75 17.417 17.748 17.417 16ZM12 6.75C13.057 6.75 13.917 7.60999 13.917 8.66699V9.25H10.083V8.66699C10.083 7.60999 10.943 6.75 12 6.75ZM15.917 16C15.917 16.923 15.59 17.25 14.667 17.25H9.33301C8.41001 17.25 8.08301 16.923 8.08301 16V12C8.08301 11.077 8.41001 10.75 9.33301 10.75H14.667C15.59 10.75 15.917 11.077 15.917 12V16ZM13.27 13.333C13.27 13.745 13.058 14.0931 12.75 14.3201V15.333C12.75 15.747 12.414 16.083 12 16.083C11.586 16.083 11.25 15.747 11.25 15.333V14.2949C10.962 14.0659 10.7649 13.728 10.7649 13.333C10.7649 12.643 11.32 12.083 12.01 12.083H12.02C12.71 12.083 13.27 12.643 13.27 13.333ZM21.75 4.5V8C21.75 8.414 21.414 8.75 21 8.75C20.586 8.75 20.25 8.414 20.25 8V4.5C20.25 3.911 20.089 3.75 19.5 3.75H16C15.586 3.75 15.25 3.414 15.25 3C15.25 2.586 15.586 2.25 16 2.25H19.5C20.909 2.25 21.75 3.091 21.75 4.5ZM2.25 8V4.5C2.25 3.091 3.091 2.25 4.5 2.25H8C8.414 2.25 8.75 2.586 8.75 3C8.75 3.414 8.414 3.75 8 3.75H4.5C3.911 3.75 3.75 3.911 3.75 4.5V8C3.75 8.414 3.414 8.75 3 8.75C2.586 8.75 2.25 8.414 2.25 8ZM8.75 21C8.75 21.414 8.414 21.75 8 21.75H4.5C3.091 21.75 2.25 20.909 2.25 19.5V16C2.25 15.586 2.586 15.25 3 15.25C3.414 15.25 3.75 15.586 3.75 16V19.5C3.75 20.089 3.911 20.25 4.5 20.25H8C8.414 20.25 8.75 20.586 8.75 21ZM21.75 16V19.5C21.75 20.909 20.909 21.75 19.5 21.75H16C15.586 21.75 15.25 21.414 15.25 21C15.25 20.586 15.586 20.25 16 20.25H19.5C20.089 20.25 20.25 20.089 20.25 19.5V16C20.25 15.586 20.586 15.25 21 15.25C21.414 15.25 21.75 15.586 21.75 16Z" fill="currentColor"/>
</svg>

<svg xmlns="http://www.w3.org/2000/svg" width="24" height="24" fill="none"><path fill="currentColor" d="M17.417 16v-4c0-1.477-.723-2.414-2-2.67v-.664A3.421 3.421 0 0 0 12 5.249a3.421 3.421 0 0 0-3.417 3.417v.663c-1.277.257-2 1.194-2 2.671v4c0 1.748 1.002 2.75 2.75 2.75h5.334c1.748 0 2.75-1.002 2.75-2.75ZM12 6.75a1.92 1.92 0 0 1 1.917 1.917v.583h-3.834v-.583A1.92 1.92 0 0 1 12 6.75ZM15.917 16c0 .923-.327 1.25-1.25 1.25H9.333c-.923 0-1.25-.327-1.25-1.25v-4c0-.923.327-1.25 1.25-1.25h5.334c.923 0 1.25.327 1.25 1.25v4Zm-2.647-2.667c0 .412-.212.76-.52.987v1.013a.75.75 0 0 1-1.5 0v-1.038a1.228 1.228 0 0 1-.485-.962c0-.69.555-1.25 1.245-1.25h.01c.69 0 1.25.56 1.25 1.25ZM21.75 4.5V8a.75.75 0 0 1-1.5 0V4.5c0-.589-.161-.75-.75-.75H16a.75.75 0 0 1 0-1.5h3.5c1.409 0 2.25.841 2.25 2.25ZM2.25 8V4.5c0-1.409.841-2.25 2.25-2.25H8a.75.75 0 0 1 0 1.5H4.5c-.589 0-.75.161-.75.75V8a.75.75 0 0 1-1.5 0Zm6.5 13a.75.75 0 0 1-.75.75H4.5c-1.409 0-2.25-.841-2.25-2.25V16a.75.75 0 0 1 1.5 0v3.5c0 .589.161.75.75.75H8a.75.75 0 0 1 .75.75Zm13-5v3.5c0 1.409-.841 2.25-2.25 2.25H16a.75.75 0 0 1 0-1.5h3.5c.589 0 .75-.161.75-.75V16a.75.75 0 0 1 1.5 0Z"/></svg>
